!!!OTL: Das Maedchen und der Faehnrich Ach Mutter mein, ach Tochter mein,
!!!ARE: Europa, Osteuropa, UdSSR, Ukraine
!!!YOR: 6, S. 107
!!    1930 gedruckt
!!!SCT: Q0127B
!!!YEM: Copyright 1995, estate of Helmut Schaffrath.
**kern
*ICvox
*Ivox
*M2/4
*k[b-e-]
*B-:
{8dd
=1
8ff
8ff
8ff
8ee-
=2
8dd
8dd
8dd}
{8cc
=3
8b-
8b-
8gg
8ff
=4
4ff
8ee-}
{8cc
=5
8ee-
8ee-
8ee-
8dd
=6
8cc
8cc
8cc}
{8cc
=7
8ff
8ee-
8dd
8cc
=8
4b-
8b-}
==
!!!AGN: Ballade, verbotene Liebe, Flucht
!!!ONB: ESAC (Essen Associative Code) Database: BALLADE
!!!AMT: simple duple
!!!AIN: vox
!!!EED: Helmut Schaffrath
!!!EEV: 1.0
*-
